X: 249
T: Ena O'Brien's
M:3/4
R:waltz
L:1/8
Z:Alf Warnock - alf0@rogers.com
Z: Taught by Ena O'Brien at Comhaltas convention Ottawa 2005
Z: Seems to be a simpler version of Kevin Keegan's #1
K:G
D|"G"B3A Bd|"Am"c2 B2 c2| "G"d2 g3B|d3e dc|
BG DG Bd|"Am"c2 A3G|"D7"F2 A2 D2| F2 A2 D2|
"G"B3A Bd|"Am"c2 B2 c2| "G"d2 g3B|d3e dc|
"G"BG DG Bd|"D7"c2 A2 F2| "G"G3A GF|G4:|
Bd|"C"g3f ga|g2 f2 e2| "G"d2 g3B|d3e dc|
BG DG Bd|"Am"c2 A3G|"D7"F2 A2 D2| F2 A2 D2|
"C"g3f ga|g2 f2 e2| "G"d2 g3B|d3e dc|
BG DG Bd|"D7"c2 A2 F2| "G"G3A "D"GF|"G"G4:|
